X:394
T:Reel 394
M:4/4
K:Gmaj
L:1/8
dc|Bcdg edcB|Aceg fddf|egfd gedB|BcAB G2dc|Bcde dcBG|ABcd edef|gfge dgBc|BcAB G2|c'c'|bgac' bgaf|g2dc d2dc'|bgaf gfed|BGAB G2d'c'|bgaf gfeg|BgdB A2dc|BGAc' bgag|fdef gage|
